X:1
T:Killebukken
T:W Peterson-Berger (1867-1942)
T:Killebukken
T:©CPDL Edition may be freely distributed, duplicated, performed and recorded PA Aglert
T:©CPDL Edition may be freely distributed, duplicated, performed and recorded PA Aglert
T:©CPDL Edition may be freely distributed, duplicated, performed and recorded PA Aglert
T:©CPDL Edition may be freely distributed, duplicated, performed and recorded PA Aglert
T:©CPDL Edition may be freely distributed, duplicated, performed and recorded PA Aglert
C:W Peterson-Berger
Z:©CPDL Edition may be freely distributed, duplicated, performed and recorded
Z:PA Aglert
%%score [ 1 2 3 4 ]
L:1/8
Q:1/4=200
M:2/4
K:A
V:1 treble nm="S"
V:2 treble nm="A"
V:3 treble-8 nm="T"
V:4 bass nm="B"
V:1
"^Presto" z4 |!mp! EE EE | z4 | z4 | EF ED | EF DF |!<(! E2 A2!<)! | B4 | EF ED | EF DF | %10
w: |Kil- le- buk- ken,|||Kil- le- buk- ken,|Kil- le- buk- ken,|lam- met|mit,|Kil- le- buk- ken,|Kil- le- buk- ken,|
w: ||||||||||
w: ||||||||||
!<(! E2 A2!<)! | B4 |!f! cA cA | B2 E2 | e3 c | B4 | z4 | z4 |!mp!"^rit."!>(! e3!>)! =c | %19
w: lam- met|mit,|kil- le- kil- le-|buk- ken|lam- met|mit|||lam- met|
w: |||||||||
w: |||||||||
 !fermata!B4 |"^a tempo" A3 A | (=GA) GF | E2 ^D2 | E2 z2 | =F2 ED |!<(! A2 A2!<)! | =c2 B2 |1,2 %27
w: mit!|Skjönt det|of- * te går|tungt og|stridt|up- ef- ter|slet- te|fjel- de,|
w: |læg så|dyg- * tig på|skin- det|dit,|Mor vil ha|det til|fæl- den|
w: |læg så|dyg- * tig på|kjö- det|dit,|ved du det|ik- ke,|tup- pen,|
 z4 |!mf!"^rit." e3 =c | (A=c)!>(! BA | =G4- | G4!>)! |!p!!<(! E4-!<)! |"^Solo" E2 B2 | e4- | %35
w: |följ kun|vak- * kert din|bjæl-||de.|_ _||
w: |som hon|syr _ sig om|kvæl-||den.|_ _||
w: ||||||||
 e2 (3ded |!>(! B4- | B4 | E4-!>)! || E4 :|3 z2 z!mf! B || e3 =c | (A=c) B!>(!A | B2 A2!>)! |] %44
w: |||||||||
w: |||||||||
w: |||||at|mor vil|ha _ det i|sup- pen?|
V:2
!mp! EE EE | z4 | z4 | z4 | CD CB, | CD B,D |!<(! C2 C2!<)! | E4 | CD CB, | CD B,D | %10
w: Kil- le- buk- ken,||||Kil- le- buk- ken,|Kil- le- buk- ken,|lam- met|mit,|Kil- le- buk- ken,|Kil- le- buk- ken,|
w: ||||||||||
w: ||||||||||
!<(! C2 C2!<)! | E4 |!f! EC EC | E2 E2 | c3 A | E4 | z4 | z4 |!mp!"^rit."!>(! A3 A!>)! | %19
w: lam- met|mit,|kil- le- kil- le-|buk- ken|lam- met|mit|||lam- met|
w: |||||||||
w: |||||||||
 !fermata!!courtesy!^G4 |"^a tempo" A3 =F | (E=F) ED | =C2 B,2 | B,2 z2 | D2 E=F |!<(! E2!<)! E2 | %26
w: mit!|Skjönt det|of- * te går|tungt og|stridt|up- ef- ter|slet- te|
w: |læg så|dyg- * tig på|skin- det|dit,|Mor vil ha|det til|
w: |læg så|dyg- * tig på|kjö- det|dit,|ved du det|ik- ke,|
 ^D2 D2 |1,2 z4 |!mf!"^rit." E3 E | E2!>(! EE | D4- | D4!>)! |!p! D4- | D4- | D4- | D4- | D4- | %37
w: fjel- de,||följ kun|vak- kert din|bjæl-||de.|_||||
w: fæl- den||som hon|syr sig om|kvæl-||den.|_||||
w: tup- pen,|||||||||||
 D4- | D4- || D4 :|3 z2 z!mf! ^D || E3 E | E2 =F!>(!=C | D2 =C2!>)! |] %44
w: |||||||
w: |||||||
w: |||at|mor vil|ha det i|sup- pen?|
V:3
 z4 | z4 | z4 |!mp! EE EE | EE EE | EE EE | EE EE | EE EE | EE EE | EE EE | EE EE | EE EE | %12
w: |||Kil- le- buk- ken,|Kil- le- buk- ken,|Kil- le- buk- ken,|Kil- le- buk- ken,|Kil- le- buk- ken,|Kil- le- buk- ken,|Kil- le- buk- ken,|Kil- le- buk- ken,|Kil- le- buk- ken,|
w: ||||||||||||
w: ||||||||||||
!f! cA cA | B2 E2 | e3 c | B4 | z4 | z4 |!mp!"^rit."!>(! e3!>)! e | !fermata!e4 |"^a tempo" =c3 c | %21
w: kil- le- kil- le-|buk- ken|lam- met|mit|||lam- met|mit!|Skjönt det|
w: ||||||||læg så|
w: ||||||||læg så|
 =c2 cA | A2 A2 | !courtesy!^G2 z2 | A2 AA |!<(! A2!<)! A2 | A2 A2 |1,2 z4 |!mf!"^rit." A3 A | %29
w: of- te går|tungt og|stridt|up- ef- ter|slet- te|fjel- de,||följ kun|
w: dyg- tig på|skin- det|dit,|Mor vil ha|det til|fæl- den||som hon|
w: dyg- tig på|kjö- det|dit,|ved du det|ik- ke,|tup- pen,|||
 A2!>(! AA | A4- | A4!>)! |!p! G4- | G4- | G4- | G4- | G4- | G4- | G4- || G4 :|3 z2 z!mf! A || %41
w: vak- kert din|bjæl-||de.|_||||||||
w: syr sig om|kvæl-||den.|_||||||||
w: |||||||||||at|
 A3 A | A2 A!>(!A | G2 E2!>)! |] %44
w: |||
w: |||
w: mor vil|ha det i|sup- pen?|
V:4
 z4 | z4 |!mp! E,E, E,E, | z4 | A,,A,, A,,A,, | A,,A,, A,,A,, | A,,A,, A,,A,, | A,,A,, A,,A,, | %8
w: ||Kil- le- buk- ken,||Kil- le- buk- ken,|Kil- le- buk- ken,|Kil- le- buk- ken,|Kil- le- buk- ken,|
w: ||||||||
w: ||||||||
 A,,A,, A,,A,, | A,,A,, A,,A,, | A,,A,, A,,A,, | A,,A,, A,,A,, |!f! E,C, E,C, | E,2 E,2 | C3 A, | %15
w: Kil- le- buk- ken,|Kil- le- buk- ken,|Kil- le- buk- ken,|Kil- le- buk- ken,|kil- le- kil- le-|buk- ken|lam- met|
w: |||||||
w: |||||||
 E,4 |!mp! =C"^rit."B, CA, | B,2 E,2 |"^rit."!>(! =C3 A,!>)! | !fermata!E,4 |"^a tempo" =F,3 F, | %21
w: mit|kil- le- kil- le-|buk- ken|lam- met|mit!|Skjönt det|
w: |||||læg så|
w: |||||læg så|
 =C,2 C,D, | E,2 F,2 | E,2 z2 | D,2 D,D, |!<(! =C,2 C,2!<)! | B,,2 B,,2 |1,2 z4 | %28
w: of- te går|tungt og|stridt|up- ef- ter|slet- te|fjel- de,||
w: dyg- tig på|skin- det|dit,|Mor vil ha|det til|fæl- den||
w: dyg- tig på|kjö- det|dit,|ved du det|ik- ke,|tup- pen,||
!mf!"^rit." =C,3 C, | =C,2!>(! C,C, | D,4- | D,4!>)! |!p! E,4- | E,4- | E,4- | E,4- | E,4- | E,4- | %38
w: följ kun|vak- kert din|bjæl-||de.|_|||||
w: som hon|syr sig om|kvæl-||den.|_|||||
w: ||||||||||
 E,4- || E,4 :|3 z2 z!mf! B,, || =C,3 C, | =C,2 D,!>(!=F, | E,2 A,,2!>)! |] %44
w: ||||||
w: ||||||
w: ||at|mor vil|ha det i|sup- pen?|

